svg/logos/bxl-microsoft-teams.svg

<svg xmlns="http://www.w3.org/2000/svg" width="24" height="24"><circle cx="20.288" cy="8.344" r="1.707"/><path d="M18.581 11.513h3.413v3.656c0 .942-.765 1.706-1.707 1.706h-1.706v-5.362zM2.006 4.2v15.6l11.213 1.979V2.221L2.006 4.2zm8.288 5.411-1.95.049v5.752H6.881V9.757l-1.949.098V8.539l5.362-.292v1.364zm3.899.439v8.288h1.95c.808 0 1.463-.655 1.463-1.462V10.05h-3.413zm1.463-4.875c-.586 0-1.105.264-1.463.673v2.555c.357.409.877.673 1.463.673a1.95 1.95 0 0 0 0-3.901z"/></svg>

<svg xmlns="http://www.w3.org/2000/svg" width="24" height="24" viewBox="0 0 24 24"><circle cx="20.288" cy="8.344" r="1.707"/><path d="M18.581 11.513h3.413v3.656c0 .942-.765 1.706-1.707 1.706h-1.706V11.513zM2.006 4.2v15.6l11.213 1.979V2.221L2.006 4.2zM10.294 9.611L8.344 9.66v5.752H6.881V9.757L4.932 9.855V8.539l5.362-.292V9.611zM14.193 10.05v8.288h1.95c.808 0 1.463-.655 1.463-1.462V10.05H14.193zM15.656 5.175c-.586 0-1.105.264-1.463.673v2.555c.357.409.877.673 1.463.673 1.077 0 1.95-.874 1.95-1.95S16.733 5.175 15.656 5.175z"/></svg>
